Pods/ProtonCore-UIFoundations/libraries/UIFoundations/Sources/Assets.xcassets/Images/IconSet/ic-brand-linux.imageset/ic-brand-linux.svg

<svg width="24" height="24" viewBox="0 0 24 24" fill="none" xmlns="http://www.w3.org/2000/svg">
<path d="M19.8834 18.1679C19.4021 17.7776 19.5894 16.9157 19.0898 16.4905C19.5736 13.5461 18.2174 10.9509 16.6004 9.2875C15.2433 7.89188 15.6807 6.53387 15.6807 5.35875C15.6807 3.481 14.9099 1.5 12.5745 1.5C10.0781 1.5 9.39388 3.5825 9.36937 4.77075C9.30988 7.625 9.946 8.367 8.27563 10.4443C6.31037 12.8881 6.02075 15.3259 6.46438 16.6191C6.257 16.8606 5.977 17.1284 5.45375 17.3497C4.00825 17.9797 5.06787 19.0341 4.668 19.7822C4.55425 19.9949 4.5 20.2171 4.5 20.4298C4.5 21.086 5.0215 21.6539 5.96912 21.569C7.2475 21.4553 8.427 22.3609 9.19 22.3609C9.86375 22.3609 10.4167 21.9776 10.674 21.45C11.8789 21.1534 13.3664 21.191 14.5704 21.5016C14.7865 22.1063 15.3727 22.5 16.0246 22.5C17.4517 22.5 17.7265 20.8821 19.3636 20.3344C19.9534 20.1375 20.25 19.5653 20.25 19.0324C20.25 18.6911 20.1284 18.3665 19.8834 18.1679ZM11.8798 9.011C11.6006 9.011 11.3696 8.78525 11.0048 8.514C10.5428 8.171 10.0729 7.97325 10.0781 7.61275C10.0781 7.36512 10.4098 7.289 10.8385 7.01688C11.2988 6.7255 11.4781 6.42975 11.9314 6.42975C12.3951 6.42975 12.5351 6.66425 13.1651 6.93638C13.7846 7.205 14.216 7.31 14.216 7.61275C14.216 7.92338 13.5676 8.14563 13.2027 8.37225C12.6664 8.703 12.3907 9.011 11.8798 9.011ZM13.3366 4.44788C14.1084 4.57125 14.195 5.9275 13.8258 6.59513L13.5151 6.46825C13.6761 5.99312 13.6735 5.21088 13.1345 5.161C12.7924 5.1295 12.5719 5.581 12.5246 5.96775C12.3907 5.91175 12.2446 5.8715 12.067 5.85663C12.1212 5.049 12.6427 4.33675 13.3366 4.44788ZM10.359 4.7375C10.9505 4.5905 11.2996 5.27825 11.3022 5.99313L11.031 6.15938C10.9942 5.85925 10.8604 5.3745 10.5244 5.47775C10.1648 5.58975 10.2234 6.42537 10.4238 6.59687L10.156 6.74563C9.7885 6.127 9.78938 4.87925 10.359 4.7375ZM8.50837 21.5751C6.79075 20.7938 6.20713 20.9714 5.879 20.9714C5.19913 20.9714 4.97687 20.4648 5.23237 19.9852C5.44937 19.5784 5.382 19.1523 5.32863 18.8101C5.24638 18.286 5.2315 18.1154 5.74688 17.8896C6.46 17.5869 6.77675 17.1975 7.013 16.9061C7.67625 16.0863 8.34563 17.376 8.89425 18.5249C9.25038 19.2695 9.95125 19.6466 10.1674 20.4717C10.366 21.2339 9.54612 22.0476 8.50837 21.5751ZM14.622 19.9354C13.411 20.5243 11.8684 20.7946 10.7143 20.197C10.5436 19.7044 10.2706 19.3859 9.97662 19.0656C10.4482 18.9414 10.7983 18.3534 10.3791 17.7627C9.932 17.1319 9.0185 16.6917 8.09538 15.9777C7.23175 15.3101 6.95875 13.6642 8.13475 11.825C7.56163 13.4543 7.89675 14.9558 8.18463 15.3854C8.24413 14.5209 8.31237 13.0771 9.49362 11.3472C10.0895 10.474 10.0983 9.32075 10.1114 8.59975L10.6539 8.97075C11.0529 9.26562 11.3871 9.59025 11.8666 9.59025C12.5754 9.59025 12.9674 9.1825 13.5134 8.84387C13.7269 8.71262 14.0498 8.57963 14.321 8.395C14.776 10.5615 16.6607 13.1672 16.7666 14.6512C17.205 13.7483 16.6424 11.5765 16.6424 11.5765C17.3791 12.7009 17.4377 13.638 17.4701 14.7878C17.9855 14.9986 18.5385 15.5481 18.5893 16.2718L18.3749 16.2472C18.2646 15.4431 16.0938 14.2619 15.8986 15.7756C14.8574 15.934 15.2362 17.5834 15.0263 18.6526C14.93 19.1418 14.7515 19.5285 14.622 19.9354ZM18.8623 19.8995C18.0004 20.232 17.4185 20.9381 17.0186 21.3765C16.2486 22.2218 15.2301 21.8166 15.1216 21.0256C15.007 20.1804 15.4366 19.7192 15.6221 18.7734C15.791 17.9097 15.602 16.5806 15.9993 16.4389C16.2574 17.9727 17.807 17.3279 18.1605 16.9096C18.7354 16.9096 18.7835 17.1039 18.9121 17.642C18.9926 17.9789 19.1038 18.2624 19.4179 18.5958C19.7836 18.9869 19.6716 19.5871 18.8623 19.8995ZM11.8622 8.51925C11.2926 8.51925 10.8665 8.14038 10.52 7.84637C10.3424 7.69675 10.5638 7.42025 10.7414 7.57075C11.08 7.85775 11.4212 8.16138 11.8622 8.16138C12.3934 8.16138 12.8615 7.70725 13.4959 7.457C13.712 7.37213 13.8354 7.70638 13.621 7.79125C13.005 8.03363 12.5106 8.51925 11.8622 8.51925Z" fill="#0C0C14"/>
</svg>

<svg xmlns="http://www.w3.org/2000/svg" width="24" height="24" viewBox="0 0 24 24">
  <g class="ic-brand-linux">
    <path d="M19.883 18.168c-.48-.39-.294-1.252-.793-1.677.484-2.945-.873-5.54-2.49-7.204-1.357-1.395-.92-2.753-.92-3.928 0-1.878-.77-3.859-3.105-3.859-2.497 0-3.181 2.083-3.206 3.27-.06 2.855.577 3.597-1.093 5.674-1.966 2.444-2.255 4.882-1.812 6.175-.207.242-.487.51-1.01.73-1.446.63-.386 1.685-.786 2.433a1.374 1.374 0 0 0-.168.648c0 .656.521 1.224 1.47 1.139 1.277-.114 2.457.792 3.22.792.674 0 1.227-.383 1.484-.911 1.205-.297 2.692-.259 3.896.052.216.604.803.998 1.455.998 1.427 0 1.702-1.618 3.339-2.166.59-.197.886-.769.886-1.302 0-.34-.122-.666-.367-.864ZM11.88 9.01c-.28 0-.51-.226-.875-.497-.462-.343-.932-.54-.927-.901 0-.248.332-.324.76-.596.46-.292.64-.587 1.093-.587.464 0 .604.234 1.234.506.62.269 1.051.374 1.051.677 0 .31-.648.533-1.013.76-.537.33-.812.638-1.323.638Zm1.457-4.563c.771.123.858 1.48.489 2.147l-.31-.127c.16-.475.158-1.257-.382-1.307-.342-.031-.562.42-.61.807a1.476 1.476 0 0 0-.457-.111c.054-.808.576-1.52 1.27-1.41Zm-2.978.29c.591-.148.94.54.943 1.255l-.271.166c-.037-.3-.17-.784-.507-.681-.36.112-.3.947-.1 1.119l-.268.149c-.367-.619-.367-1.867.203-2.009Zm-1.85 16.837c-1.718-.781-2.302-.604-2.63-.604-.68 0-.902-.506-.647-.986.217-.407.15-.833.097-1.175-.083-.524-.098-.695.418-.92.713-.303 1.03-.692 1.266-.984.663-.82 1.333.47 1.881 1.619.356.745 1.057 1.122 1.273 1.947.199.762-.62 1.576-1.659 1.103Zm6.113-1.64c-1.211.59-2.754.86-3.908.262-.17-.493-.443-.811-.737-1.131.471-.125.821-.713.402-1.303-.447-.631-1.36-1.071-2.284-1.785-.863-.668-1.136-2.314.04-4.153-.573 1.63-.238 3.13.05 3.56.06-.864.127-2.308 1.309-4.038.595-.873.604-2.026.617-2.747l.543.37c.399.296.733.62 1.213.62.708 0 1.1-.408 1.646-.746.214-.131.537-.264.808-.449.455 2.167 2.34 4.772 2.446 6.256.438-.903-.125-3.075-.125-3.075.737 1.125.796 2.062.828 3.212.515.21 1.069.76 1.12 1.484l-.215-.025c-.11-.804-2.281-1.985-2.476-.471-1.042.158-.663 1.807-.873 2.877-.096.489-.274.876-.404 1.282Zm4.24-.035c-.862.332-1.443 1.038-1.843 1.477-.77.845-1.789.44-1.897-.351-.115-.846.315-1.307.5-2.253.169-.863-.02-2.192.377-2.334.258 1.534 1.808.889 2.161.47.575 0 .623.195.752.733.08.337.192.62.506.954.366.39.254.991-.556 1.303Zm-7-11.38c-.57 0-.995-.38-1.342-.674-.178-.15.044-.426.221-.275.339.287.68.59 1.121.59.531 0 1-.454 1.634-.704.216-.085.34.25.125.334-.616.243-1.11.728-1.759.728Z" class="Icon"/>
  </g>
</svg>
